X: 21755
T: King Of The Fairies
R: hornpipe
M: 4/4
K: Edorian
|:B,2|E>DE>F G>FG>A|B2 B>A G>FG>A|B2 E2 E>FG>E|F>GF>E D2 B,2|
E>DE>F G>FG>A|B>AG>B d3 =c|B2 E2 G>FE>D|E2 E>D E2:|
B2|e2 e2 B>de>f|g>ag>f e3 f|e2 B2 B>AB>c|d>ed>c B>c (3dcB|
e2 B2 B>de>f|g>ag>f e>fe>d|B>de>g f>ed>f|e2 e>d e2 e>f|
g3 e f3 d|e>dB>c d3 e|d>BA>F G>AB>c|d>BA>F G>FE>D|
B,2 E2 E>FG>A|B2 e2 e>de>f|e2 B2 B>AG>F|E2 E>D E2||

